Numix-uTouch/48x48/apps/audacious.svg

<?xml version="1.0" encoding="UTF-8" standalone="no"?>
<svg
   xmlns:dc="http://purl.org/dc/elements/1.1/"
   xmlns:cc="http://creativecommons.org/ns#"
   xmlns:rdf="http://www.w3.org/1999/02/22-rdf-syntax-ns#"
   xmlns:svg="http://www.w3.org/2000/svg"
   xmlns="http://www.w3.org/2000/svg"
   xmlns:sodipodi="http://sodipodi.sourceforge.net/DTD/sodipodi-0.dtd"
   xmlns:inkscape="http://www.inkscape.org/namespaces/inkscape"
   width="48"
   height="48"
   viewBox="0 0 48 48"
   id="svg2"
   version="1.1"
   inkscape:version="0.48.4 r9939"
   sodipodi:docname="audacious.svg">
  <metadata
     id="metadata25">
    <rdf:RDF>
      <cc:Work
         rdf:about="">
        <dc:format>image/svg+xml</dc:format>
        <dc:type
           rdf:resource="http://purl.org/dc/dcmitype/StillImage" />
      </cc:Work>
    </rdf:RDF>
  </metadata>
  <sodipodi:namedview
     pagecolor="#ffffff"
     bordercolor="#666666"
     borderopacity="1"
     objecttolerance="10"
     gridtolerance="10"
     guidetolerance="10"
     inkscape:pageopacity="0"
     inkscape:pageshadow="2"
     inkscape:window-width="640"
     inkscape:window-height="480"
     id="namedview23"
     showgrid="false"
     inkscape:zoom="4.9166667"
     inkscape:cx="24"
     inkscape:cy="24"
     inkscape:window-x="0"
     inkscape:window-y="0"
     inkscape:window-maximized="0"
     inkscape:current-layer="svg2" />
  <defs
     id="defs4">
    <radialGradient
       cx="148.004"
       cy="160"
       gradientTransform="matrix(.1831 0 0 .1831 -3.10029 -5.29688)"
       id="radial0"
       r="128"
       gradientUnits="userSpaceOnUse">
      <stop
         offset="0"
         style="stop-color:#f5c9fb"
         id="stop7" />
      <stop
         offset="1"
         style="stop-color:#754f7a"
         id="stop9" />
    </radialGradient>
  </defs>
  <path
     style="fill:url(#radial0)"
     d="M 47.4375 11.546875 L 47.4375 36.453125 C 47.4375 46.703125 47.4375 47.4375 36.453125 47.4375 L 11.550781 47.4375 C 0.5625 47.4375 0.5625 46.703125 0.5625 36.453125 L 0.5625 11.546875 C 0.5625 1.296875 0.5625 0.5625 11.550781 0.5625 L 36.453125 0.5625 C 47.4375 0.5625 47.4375 1.296875 47.4375 11.546875 Z "
     id="path11" />
  <path
     inkscape:connector-curvature="0"
     id="path15"
     d="m 38.265625,47.4375 c 2.542969,-0.01172 4.378906,-0.08203 5.710937,-0.441406 l -4.230468,-7.25 -4.484375,7.691406 1.191406,0 c 0.640625,0 1.242187,0 1.8125,0 z m 1.480469,-7.691406 -5.125,-8.789063 -5.128906,8.789063 z m 0,0 7.652344,0 c 0.03125,-0.972656 0.03906,-2.0625 0.03906,-3.296875 l 0,-1.097657 -2.5625,-4.394531 z m 5.128906,-8.789063 -5.128906,-8.789062 -5.125,8.789062 z m 0,0 2.5625,0 0,-4.394531 z m -10.253906,0 -5.128906,-8.789062 -5.125,8.789062 z m -10.253906,0 -5.128907,8.789063 10.253907,0 z m 0,0 -5.128907,-8.789062 -5.125,8.789062 z m -10.253907,0 -5.128906,8.789063 10.253906,0 z m 0,0 -5.128906,-8.789062 -5.125,8.789062 z m -10.253906,0 -3.296875,5.648438 c 0,1.167969 0.011719,2.210937 0.039062,3.140625 l 8.382813,0 z m 0,0 -3.296875,-5.648437 0,5.648437 z m 5.125,8.789063 -4.3125,7.394531 c 1.597656,0.292969 3.808594,0.296875 6.875,0.296875 l 1.925781,0 z m 0,-17.578125 -5.125,-8.789063 -3.296875,5.648438 0,3.140625 z m 0,0 10.253906,0 -5.125,-8.789063 z m 5.128906,-8.789063 -5.128906,-8.789062 -5.125,8.789062 z m 0,0 10.253907,0 -5.128907,-8.789062 z m 5.125,-8.789062 -2.351562,-4.027344 -5.339844,0 c -0.07422,0 -0.136719,0 -0.210937,0 L 8.984375,4.589844 z m 0,0 10.253907,0 -2.351563,-4.027344 -5.550781,0 z m 10.253907,0 10.253906,0 L 37.394531,0.5625 c -0.3125,0 -0.609375,0 -0.945312,0 l -4.605469,0 z m 0,0 -5.125,8.789062 10.253906,0 z m 5.128906,8.789062 10.253906,0 -5.128906,-8.789062 z m 0,0 -5.128906,8.789063 10.253906,0 z m 5.125,8.789063 7.691406,0 0,-4.394531 -2.5625,-4.394532 z m 5.128906,-8.789063 2.5625,0 0,-1.832031 c 0,-0.914063 -0.0078,-1.75 -0.02344,-2.523437 z m -15.382812,8.789063 -5.125,-8.789063 -5.128907,8.789063 z m 10.253906,-17.578125 7.308594,0 C 46.5,1.832031 45.167969,0.960938 42.023438,0.6875 z m -30.761719,0 L 6.679688,0.636719 C 3.019531,0.84375 1.539062,1.632812 0.945312,4.589844 z m -5.125,8.789062 L 0.621094,7.824219 C 0.578125,8.898438 0.5625,10.132812 0.5625,11.546875 l 0,1.832031 z m 15.378906,26.367188 -4.484375,7.691406 8.972656,0 z m 10.253907,0 -4.484376,7.691406 8.972657,0 z M 2.59375,46.367188 0.992188,43.621094 c 0.292968,1.316406 0.785156,2.179687 1.601562,2.746094 z"
     style="fill:#ffffff;fill-opacity:0.05100002" />
  <path
     style="fill:#f9f9f9"
     d="M 23.5 12 C 21.759954 12.000018 20.107614 12.308773 18.59375 12.9375 C 17.079713 13.566234 15.786053 14.415999 14.65625 15.5 C 14.052261 16.079467 13.499633 16.715283 13.03125 17.40625 C 22.979137 11.755913 29.683042 17.807849 29.59375 19.71875 C 29.52812 21.126751 28.298308 20.861917 25.5625 20.09375 C 19.745321 18.460382 13.739493 20.551464 12.21875 25.5625 C 11.703428 27.325202 12.122745 29.109833 13.03125 30.5625 C 13.04783 30.589 13.04559 30.62998 13.0625 30.65625 C 13.521572 31.319217 14.069008 31.9366 14.65625 32.5 C 15.786123 33.584001 17.079782 34.433766 18.59375 35.0625 C 20.107543 35.691167 21.760024 36 23.5 36 C 25.217428 35.999994 26.829504 35.691237 28.34375 35.0625 C 29.88037 34.433766 31.213947 33.584001 32.34375 32.5 C 33.473623 31.415999 34.34466 30.140001 35 28.6875 C 35.655271 27.235166 36 25.669334 36 24 C 36 22.352332 35.655271 20.796417 35 19.34375 C 34.344729 17.869749 33.473623 16.584 32.34375 15.5 C 31.213877 14.415999 29.880128 13.566168 28.34375 12.9375 C 26.829609 12.308833 25.217393 12 23.5 12 z M 22.59375 24.03125 A 6.0140657 3.9777338 0.09247257 0 1 28.96875 28.59375 A 6.0140657 3.9777338 0.09247257 1 1 17.03125 27.40625 A 6.0140657 3.9777338 0.09247257 0 1 22.59375 24.03125 z "
     id="path32" />
</svg>

<svg xmlns="http://www.w3.org/2000/svg" viewBox="0 0 48 48"><defs><radialGradient id="0" cx="24" cy="24" r="23.437" gradientUnits="userSpaceOnUse"><stop stop-color="#cc5d9d"/><stop offset="1" stop-color="#ac3d7d"/></radialGradient></defs><path d="m 47.44 11.547 l 0 24.906 c 0 10.25 0 10.984 -10.984 10.984 l -24.902 0 c -10.988 0 -10.988 -0.734 -10.988 -10.984 l 0 -24.906 c 0 -10.25 0 -10.984 10.988 -10.984 l 24.902 0 c 10.984 0 10.984 0.734 10.984 10.984" fill="url(#0)"/><path d="m 23.504 12 c -1.742 0 -3.391 0.309 -4.906 0.941 c -1.512 0.625 -2.805 1.477 -3.934 2.563 c -0.605 0.578 -1.156 1.215 -1.629 1.906 c 9.945 -5.652 16.652 0.398 16.559 2.313 c -0.066 1.406 -1.297 1.145 -4.03 0.375 c -5.816 -1.633 -11.82 0.457 -13.344 5.469 c -0.512 1.758 -0.094 3.543 0.813 5 c 0.023 0.023 0.023 0.066 0.031 0.09 c 0.461 0.664 1.012 1.281 1.598 1.844 c 1.129 1.082 2.43 1.934 3.941 2.563 c 1.516 0.625 3.164 0.941 4.906 0.941 c 1.719 0 3.316 -0.313 4.844 -0.941 c 1.535 -0.629 2.867 -1.477 4 -2.563 c 1.129 -1.086 2 -2.359 2.656 -3.813 c 0.648 -1.453 1 -3.02 1 -4.688 c 0 -1.648 -0.352 -3.203 -1 -4.656 c -0.656 -1.477 -1.527 -2.762 -2.656 -3.844 c -1.133 -1.086 -2.465 -1.938 -4 -2.563 c -1.523 -0.629 -3.125 -0.941 -4.844 -0.941 m -0.91 12.04 c 1.816 -0.086 3.602 0.383 4.844 1.27 c 1.238 0.887 1.801 2.098 1.531 3.293 c -0.563 2.141 -3.59 3.59 -6.836 3.27 c -3.242 -0.316 -5.516 -2.301 -5.105 -4.457 c 0.422 -1.852 2.738 -3.254 5.566 -3.371 m -0.004 -0.004" fill="#fff"/><path d="m 38.27 47.44 c 2.543 -0.012 4.379 -0.082 5.711 -0.441 l -4.23 -7.25 -4.484 7.691 1.191 0 c 0.641 0 1.242 0 1.813 0 z m 1.48 -7.691 -5.125 -8.789 -5.129 8.789 z m 0 0 7.652 0 c 0.031 -0.973 0.039 -2.063 0.039 -3.297 l 0 -1.098 -2.563 -4.395 z m 5.129 -8.789 -5.129 -8.789 -5.125 8.789 z m 0 0 2.563 0 0 -4.395 z m -10.254 0 -5.129 -8.789 -5.125 8.789 z m -10.254 0 -5.129 8.789 10.254 0 z m 0 0 -5.129 -8.789 -5.125 8.789 z m -10.254 0 -5.129 8.789 10.254 0 z m 0 0 -5.129 -8.789 -5.125 8.789 z m -10.254 0 -3.297 5.648 c 0 1.168 0.012 2.211 0.039 3.141 l 8.383 0 z m 0 0 -3.297 -5.648 0 5.648 z m 5.125 8.789 -4.313 7.395 c 1.598 0.293 3.809 0.297 6.879 0.297 l 1.922 0 z m 0 -17.578 -5.125 -8.789 -3.297 5.648 0 3.141 z m 0 0 10.254 0 -5.125 -8.789 z m 5.129 -8.789 -5.129 -8.789 -5.125 8.789 z m 0 0 10.254 0 -5.129 -8.789 z m 5.125 -8.789 -2.352 -4.03 -5.336 0 c -0.078 0 -0.141 0 -0.215 0 l -2.352 4.03 z m 0 0 10.254 0 -2.352 -4.03 -5.551 0 z m 10.254 0 10.254 0 l -2.352 -4.03 c -0.313 0 -0.609 0 -0.941 0 l -4.609 0 z m 0 0 -5.125 8.789 10.254 0 z m 5.129 8.789 10.254 0 -5.129 -8.789 z m 0 0 -5.129 8.789 10.254 0 z m 5.125 8.789 7.691 0 0 -4.395 -2.563 -4.395 z m 5.129 -8.789 2.563 0 0 -1.832 c 0 -0.914 -0.008 -1.75 -0.023 -2.523 z m -15.383 8.789 -5.125 -8.789 -5.129 8.789 z m 10.254 -17.578 7.309 0 c -0.555 -2.758 -1.887 -3.629 -5.03 -3.902 z m -30.762 0 l -2.305 -3.953 c -3.66 0.207 -5.141 0.996 -5.734 3.953 z m -5.125 8.789 l -3.238 -5.555 c -0.043 1.074 -0.059 2.309 -0.059 3.723 l 0 1.832 z m 15.379 26.367 -4.484 7.691 8.973 0 z m 10.254 0 -4.484 7.691 8.973 0 z m -26.898 6.621 -1.602 -2.746 c 0.293 1.316 0.785 2.18 1.602 2.746 z" fill="#fff" fill-opacity="0.083"/></svg>
